ui/StatusQ/src/assets/twemoji/svg/1f3f3-fe0f-200d-1f308.svg

<svg viewBox="0 0 36 36" xmlns="http://www.w3.org/2000/svg"><path d="m0 27a4 4 0 0 0 4 4h28a4 4 0 0 0 4-4v-.5h-36z" fill="#880082"/><path d="m0 22.07h36v4.6h-36z" fill="#3558a0"/><path d="m0 17.83h36v4.5h-36z" fill="#138f3e"/><path d="m0 13.5h36v4.5h-36z" fill="#fad220"/><path d="m0 9.17h36v4.5h-36z" fill="#ff7300"/><path d="m32 5h-28a4 4 0 0 0 -4 4v.33h36v-.33a4 4 0 0 0 -4-4z" fill="#ff000e"/></svg>

<svg xmlns="http://www.w3.org/2000/svg" viewBox="0 0 36 36" xml:space="preserve"><path fill="#880082" d="M0 27a4 4 0 0 0 4 4h28a4 4 0 0 0 4-4v-.5H0v.5z"/><path fill="#3558A0" d="M0 22.07h36v4.6H0z"/><path fill="#138F3E" d="M0 17.83h36v4.5H0z"/><path fill="#FAD220" d="M0 13.5h36V18H0z"/><path fill="#FF7300" d="M0 9.17h36v4.5H0z"/><path fill="#FF000E" d="M32 5H4a4 4 0 0 0-4 4v.33h36V9a4 4 0 0 0-4-4z"/></svg>
